X:1
T:Title
L:1/8
Q:1/4=120
M:4/4
K:D
V:1 treble nm="Midi_1"
V:1
 D2 F>G A3 A |"^Descant to Truro AMNS 143" B2 c2 d3 e | f2 e2 (dc) (BA) | (Bc) d2 (d2 c)E | %4
w: 5.~Let ev'- ry crea- ture|rise and bring pe-|cu- liar ho * nours *|to * our King; * an-|
 A2 B2 c3 d | (ef) (ed) (cBA)A | %6
w: gels de- scend with|songs * a * gain, * * and|
 A2"^Descant by Andrew Sims, May 2017\nBased on harmony by Noel Rawsthorne" d2 B2 e2 | f2 e2 d4 |] %8
w: earth re- peat the|loud A- men.|

